X:1
T:Basket of Yarn
C:Randy Miller
B:Randy Miller "The Fiddler's Throne"
M:C|
L:1/8
K:G
E | "G"DEGB AGED | "C"(3.c.c.c cA BGEG | "G"DEGB "Em"AGED | "Am"(3cBA BG "D"AGEG |
"G"DEGB AGED | "C"c3e dBAB | "Am"(3cBA BG Agfg |1 "D"ecAF "G"G3 :|2 "D"ecAF "G"G4 ||
"G"Bd (3.d.d.d Bdgf | "C"edeg aged | "G"Bdd^c "Em"dedB | "Am"(3cBA BG "D"AGEG | "G"Bd (3.d.d.d Bdgf |
"C"edeg a2 ga |1 "G"bgag edge | "D"dBAB AGAc :|2 "G"bgag gedg | "D"ecAF "G"G3 |]
